!!!OTL: An cailín rua, S. 57
!!!id: I0512
**kern
*clefG2
*k[f#]
*D:
{8d
=1
4d
8d
8e
=2
4g
8g
8g
=3
4a
8e
8e
=4
4e
4d
=5
4cc}
=6
{8cc
8cc
=7
4b
8a
8g
=8
4a
8b
8cc
=9
2dd}
=10
{8ee
4ee
8ee
=11
4dd
8b
8a
=12
4g
8e
8f#}
=13
{8g
8a
8b
8cc
=14
4dd
8a
8a
=15
4b
8g
8g
=16
4e
4d
=17
4.d}
==
*-
!!!minrhy: 8
!!!meters: 2/4 ]  ZZ[4
!!!cut: An cailín rua, S. 57
!!!reg: Irland
!!!trd: O BOYLE, Sean: 25 Irish Folksongs, Dublin 1976
!!!rhy1: X  X_XX  X_XX  X_XX  X_X_  X_
!!!rhy2: XX  X_XX  X_XX  X__
!!!key: I0512  08  D 2/4 ]  ZZ[4
!!!mod: HEPTATONIK MIXOLYDISCH]  AMBITUS[9
!!!kad: 7b+131
!!!akz: 14527b_65+1_+2+14_4+1621_
!!!fot: 'a__b__c__d__
!!!for: 'a__aw_b__c__
!!!fok: '~a_Va_\__^d_
!! PHRAS[GEMISCHTTAKTIG]
!!!fkt: Untreue, Liebe, Dummheit
!! IRISCHE VKL.
!! PR[10] 2K[1] 2G[27] 3K[14] 3G[0] 4A[0] 4Ü[0] 5A[1] 6K[0] 6G[0]
!! 7K[0] 7G[0] 8A[0] MEHR[0] SI[44] ABS[71] SR[28] SP[15]
!! ST[16] 2k[6] 2g[25] 3k[11] 3g[0] 4d[0] 4ü[0] 5d[0] 6k[0] 6g[4]
!! 7k[0] 7g[0] 8d[0] mehr[0] si[46] dm[-2] sr[31] sp[15]
!! 1F[56] 2F[28] 3F[0] 4F[0] LF[0] 2P[11] 3P[6] 4P[0] TRI[0] DF[4] AB[72]
!! TF[0] U3K[0] U3[0] U4[0] U4Ü[0] U5[0] U6K[0] U6[0] U7K[4] U7[0]
!! N1[13] N2K[0] N2[0] N3K[11] N3[0] N4[15] N4Ü[0] N5[17] N6K[0] N6[0]
!!!n7k: 11] N7[0] O1[15] O2K[0] O2[7] O3K[7] O3[0] HÖ[0
